X:1
T:Beau Vallon, 10.10.10.10
T:Beau Vallon, 10.10.10.10
T:George Edgar Oliver, 1887
T:Public Domain Courtesy of the Cyber Hymnal™
C:George Edgar Oliver, 1887
Z:Public Domain
Z:Courtesy of the Cyber Hymnal™
%%score ( 1 2 ) ( 3 4 )
L:1/8
Q:1/4=115
M:4/4
K:F
V:1 treble 
V:2 treble 
V:3 bass 
V:4 bass 
V:1
 [CF]2 | [CA]4 ([CE]3 [CF]) | [CB]6 [CA]2 | [EA]2 [EG]2 [E^F]2 [EG]2 | [Fd]6 [Fd]2 | [Dd]4 (d3 c) | %6
 [DB]2 D2 [DE]2 [DF]2 | [FA]4 [FG]4 | [EG]6 [EG]2 | [^CA]4 ([CE]3 [EG]) | F6 F2 | %11
 [Fd]2 [Fd]2 [Fe]2 [Fd]2 | c6 [Ec]2 | [Fc]4 [^Fc]4 | [Gc]2 [GB]2 [Dd]2 [DB]2 | A4 G4 | F6 |] %17
V:2
 x2 | x8 | x8 | x8 | x8 | x4 D4 | x2 D2 x4 | x8 | x8 | x8 | F6 F2 | x8 | (E2 F2 G2) x2 | x8 | x8 | %15
 (C2 F2) (F2 E2) | F6 |] %17
V:3
 [F,A,]2 | [F,A,]4 ([G,B,]3 [F,A,]) | [E,G,]6 [F,A,]2 | [C,C]2 [C,B,]2 [C,A,]2 [C,B,]2 | %4
 [B,,B,]6 [B,,B,]2 | [^F,A,]4 [D,F,]4 | [G,B,]2 [G,B,]2 [^G,=B,]2 [G,B,]2 | [D,=B,]4 [D,B,]4 | %8
 C6 [B,,C]2 | [A,,E,]4 ([A,,G,]3 [^C,B,]) | [D,A,]6 [D,A,]2 | %11
 [B,,B,]2 [B,,B,]2 [G,,=B,]2 [G,,B,]2 | C6 [B,C]2 | [A,C]4 [A,_E]4 | %14
 [B,D]2 [B,D]2 [B,,B,]2 [B,,G,]2 | (F,2 A,2) (C2 B,2) | [F,A,]6 |] %17
V:4
 x2 | x8 | x8 | x8 | x8 | x8 | x8 | x8 | (C,2 D,2 C,2) x2 | x8 | x8 | x8 | (C,2 D,2 E,2) x2 | x8 | %14
 x8 | C,4 C,4 | x6 |] %17

